X: 504
T:Sit Around the Cheerful Hearth
M:C
L:1/8
B:O'Neill's 504
N:"Moderate" "collected by F. O'Neill"
Z:Transcribed by Dave Wooldridge
K:Dm
(F>G) | A>BAG AD D z/2 E/2 | F>GFD G3 (F/2G/2)  | A>BAG ADDE | F>(A G/2F/2E/2F/2) D3 ||
(D/2E/2) | F>GAB c>dcA | d>^cde Hf2 ed | c>AFG AD D z/2 E/2 |  F>(A G/2F/2E/2F/2) D2 ||


